X:1
T:Jerusalem, My Home
T:Jerusalem, My Home
T:Daniel O. Teasley, pub.1918
T:Daniel S. Warner
T:PUBLIC DOMAIN
T:PUBLIC DOMAIN
C:Daniel O. Teasley, pub.1918
Z:Daniel S. Warner
Z:PUBLIC DOMAIN
%%score ( 1 2 ) ( 3 4 )
L:1/8
Q:3/8=50
M:6/8
K:Db
V:1 treble nm="Treble"
V:2 treble 
V:3 bass nm="Bass"
V:4 bass 
V:1
 [A,D] | [DF]2 [DF] (F E)[A,D] | [DA]2 [CA] [DA]2 [A,D] | [CE]2 [CE] (([CE] [DF])) [A,E] | %4
w: 1.~Fair|cit- y of * the|gos- pel day, Long|have they sung * of|
w: 2.~This|ho- ly new * Je-|ru- sa- lem Came|down from God * all|
w: 3.~The|Lamb of God * Him-|self thy light, Shines|out in crys- _ tal|
 [A,D]3 [A,D]2 [A,D] | [DF]2 [DF] (F E)[A,D] | [DA]2 [CA] [DA]2 | [DF] | %8
w: thee, * But|sung thy glo- _ ry|far a- way,|And|
w: pure; * In|her the Lord * doth|dwell with men,|And|
w: rays; * We|call thy walls * sal-|va- tion bright,|And|
 [CE]2 [D=G] (([DB] [Ec])) [DB] | ([CA]3 [GA]2) [FA] | [Fd]2 [Fd] (([Fd] [Ac])) [GB] | %11
w: failed thy light * to|see. * “Come,”|said an an- _ gel|
w: keep them ev- _ er-|more. * Thou|art the moth- _ er|
w: all thy gates * are|praise. * O|cit- y of * e-|
 [FA]2 [DF] [FA]2 [FA] | [Fd]2 [Fd] (([FA] [DF]))D | [CE]3 [CE]2 | D | [DF]2 [DF] (F E)[A,D] | %16
w: voice to John, “I’ll|show the bride * of|Christ”; *|He|showed him new * Je-|
w: of us all, Thou|art the church * of|God; *|And|all with- in * thy|
w: ter- nal truth, Blest|moth- er of * the|free, *|As|in the glo- _ ry|
 [DA]2 [CA] [DA]2 [A,D] | [CE]2 [CE] (([CE] [DF])) [A,E] | [A,D]2 || %19
w: ru- sa- lem, In|bri- dal glo- _ ry|dressed.|
w: sa- cred wall Are|washed in Je- _ sus’|blood.|
w: of thy youth, The|saints have come * to|thee.|
[M:12/8]"^Refrain" [FA] (([FA] [DF])) [FA] | [Fd]6 [Fd]2 | [Fd] (([Fd] [Ac])) [GB] | %22
w: Je- ru- _ sa-|lem, _|my bliss- _ ful|
w: |||
w: |||
 [FA]6 [FA]2 [FA] (([FA] [GB])) [DF] | [EG]6 [EG]2 [EG] (([EG] [FA])) [EG] | %24
w: home, _ Long has * my|soul _ re- pined _ for|
w: ||
w: ||
 [DF]6 [DF]2 [FA] (([FA] [DF])) [FA] | [Af]6 [Af]2 [=Af] (e d)[GB] | [FA]6 [FA]2 [Fd] [Fd]2 [GB] | %27
w: thee; _ I’ll sing * thy|praise _ for- ev- _ er-|more, _ Blest moth- er|
w: |||
w: |||
 [FA]6 [FA]2 [DF] (([CE] [DF])) [A,E] | D6 D2 |] %29
w: of _ the pure * and|free. _|
w: ||
w: ||
V:2
 x | z3 D2 z | x6 | x6 | x6 | z3 D2 z | x5 | x | x6 | x6 | x6 | x6 | z3 z z D | z3 z2 | D | %15
 z3 D2 z | x6 | x6 | x2 ||[M:12/8] x4 | x8 | x4 | x12 | x12 | x12 | z6 z3 B2 z | x12 | x12 | %28
 A,2 A, (=G, A,) B, A,2 |] %29
V:3
 [D,F,] | [D,A,]2 [D,A,] (A, G,)[D,F,] | [F,A,]2 [E,G,] [D,F,]2 [D,F,] | %3
w: |||
 [A,,G,]2 [A,,G,] (G, A,)[A,,G,] | [D,F,]3 [D,F,]2 [D,F,] | [D,A,]2 [D,A,] (A, G,)[D,F,] | %6
w: |||
 [F,A,]2 [E,G,] [D,F,]2 | [D,A,] | [E,A,]2 [E,B,] [E,=G,]2 [E,G,] | [A,,A,]3 [A,,A,]2 [D,A,] | %10
w: ||||
 [D,A,]2 [D,A,] [D,A,]2 [D,D] | [D,D]2 [D,A,] [D,D]2 [D,D] | [D,A,]2 [D,A,] [D,A,]2 [B,,=G,] | %13
w: |||
 [A,,A,]3 [A,,A,]2 | [D,F,] | [D,A,]2 [D,A,] (A, G,)[D,F,] | [F,A,]2 [E,G,] [D,F,]2 [D,F,] | %17
w: ||||
 [A,,G,]2 [A,,G,] (G, A,)[A,,G,] | [D,F,]2 ||[M:12/8] z z3 | z2 [D,A,] [D,A,]2 [D,A,] [D,A,]2 | %21
w: |||Je- ru- sa- lem,|
 z z3 | z2 [D,D] [D,D]2 [D,D] [D,D]2 z z3 | z2 [A,,A,] [A,,A,]2 [A,,A,] [A,,A,]2 z z3 | %24
w: |my bliss- ful home,|Long has my soul|
 z2 [D,A,] [D,A,]2 [D,A,] [D,A,]2 z z3 | z2 [D,D] [D,D]2 [D,D] [D,D]2 z z3 | %26
w: re- pined for thee;|I’ll sing thy praise|
 z2 [D,D] [D,D]2 [D,D] [D,D]2 z z3 | z2 [D,D] [D,D]2 [D,D] [D,D]2 [D,A,] (G, A,)[A,,G,] | %28
w: for- ev- er- more,|Blest moth- er of the pure * and|
 F,2 F, =E, F, G, F,2 |] %29
w: free (the pure * and free).|
V:4
 x | z3 D,2 z | x6 | z3 A,,2 z | x6 | z3 D,2 z | x5 | x | x6 | x6 | x6 | x6 | x6 | x5 | x | %15
 z3 D,2 z | x6 | z3 A,,2 z | x2 ||[M:12/8] x4 | x8 | x4 | x12 | x12 | x12 | x12 | x12 | %27
 z3 z3 z3 A,,2 z | D,6 D,2 |] %29

